learning-site/svg (75).svg

<svg xmlns="http://www.w3.org/2000/svg" xmlns:xlink="http://www.w3.org/1999/xlink" viewBox="0 0 100 100" version="1.1"><!-- Generator: Sketch 51.3 (57544) - http://www.bohemiancoding.com/sketch --><title>Create a dashboard with Power BI/get-started-with-power-bi</title><desc>Created with Sketch.</desc><defs><filter x="-2.1%" y="-1.5%" width="104.2%" height="105.9%" filterUnits="objectBoundingBox" id="filter-1"><feOffset dx="0" dy="2" in="SourceAlpha" result="shadowOffsetOuter1"></feOffset><feColorMatrix values="0 0 0 0 0   0 0 0 0 0   0 0 0 0 0  0 0 0 0.0963541667 0" type="matrix" in="shadowOffsetOuter1" result="shadowMatrixOuter1"></feColorMatrix><feMerge><feMergeNode in="shadowMatrixOuter1"></feMergeNode><feMergeNode in="SourceGraphic"></feMergeNode></feMerge></filter><path d="M14.2695809,40.0678267 L18.266682,40.0678267 L18.266682,49.3326304 L16.1225417,49.3326304 L16.1225417,41.7884331 L14.2695809,41.7884331 L14.2695809,40.0678267 Z M23.8520351,49.4914557 C21.5755404,49.4914557 19.8814049,47.7576138 19.8814049,44.7002286 C19.8814049,41.6428433 21.5755404,39.9090015 23.8520351,39.9090015 C26.1417651,39.9090015 27.8226653,41.6428433 27.8226653,44.7002286 C27.8226653,47.7576138 26.1417651,49.4914557 23.8520351,49.4914557 Z M23.8520351,47.6782012 C24.9241052,47.6782012 25.6652895,46.8046626 25.6652895,44.7002286 C25.6652895,42.5957946 24.9241052,41.7222559 23.8520351,41.7222559 C22.7932004,41.7222559 22.0520161,42.5957946 22.0520161,44.7002286 C22.0520161,46.8046626 22.7932004,47.6782012 23.8520351,47.6782012 Z M28.365318,40.0678267 L32.3624191,40.0678267 L32.3624191,49.3326304 L30.2182788,49.3326304 L30.2182788,41.7884331 L28.365318,41.7884331 L28.365318,40.0678267 Z" id="path-2"></path><filter x="-0.7%" y="-1.3%" width="101.4%" height="105.2%" filterUnits="objectBoundingBox" id="filter-3"><feOffset dx="0" dy="0.25" in="SourceAlpha" result="shadowOffsetOuter1"></feOffset><feColorMatrix values="0 0 0 0 1   0 0 0 0 1   0 0 0 0 1  0 0 0 0.249094203 0" type="matrix" in="shadowOffsetOuter1"></feColorMatrix></filter><filter x="-0.4%" y="-0.5%" width="100.7%" height="102.0%" filterUnits="objectBoundingBox" id="filter-4"><feOffset dx="0" dy="0.25" in="SourceAlpha" result="shadowOffsetOuter1"></feOffset><feColorMatrix values="0 0 0 0 1   0 0 0 0 1   0 0 0 0 1  0 0 0 0.249094203 0" type="matrix" in="shadowOffsetOuter1" result="shadowMatrixOuter1"></feColorMatrix><feMerge><feMergeNode in="shadowMatrixOuter1"></feMergeNode><feMergeNode in="SourceGraphic"></feMergeNode></feMerge></filter></defs><g id="Badges-FINAL" stroke="none" stroke-width="1" fill="none" fill-rule="evenodd"><g id="Create-a-dashboard-with-Power-BI" transform="translate(-577.000000, -320.000000)"><g id="Create-a-dashboard-with-Power-BI/get-started-with-power-bi" transform="translate(577.000000, 320.000000)"><rect id="BG" fill="#7D7D7D" x="2" y="2" width="96" height="96" rx="48"></rect><g id="Book" filter="url(#filter-1)" transform="translate(26.000000, 16.000000)"><g transform="translate(0.167481, 0.387536)"><path d="M0.832518557,55.6124645 L0.832518557,61.6124645 C0.839673316,62.8067453 1.6709668,63.6146507 2.83251856,63.6124645 L46.8325186,63.6124689 L46.8325186,55.6124645 L0.832518557,55.6124645 Z" id="Shape" fill="#BE9556" fill-rule="nonzero"></path><path d="M2.83251856,56.6124645 L2.83251856,60.6124645 C2.86672747,61.717521 3.75260508,62.6147293 4.78807411,62.6124645 L46.8325186,62.6124645 L46.8325186,56.6124645 L2.83251856,56.6124645 Z" id="Shape" fill="#FFFFFF" fill-rule="nonzero"></path><polygon id="Shape" fill="#4F4D52" fill-rule="nonzero" opacity="0.2" points="2.83251856 56.6124645 2.83251856 57.6124645 46.8325186 57.6124645 46.8325186 56.6124645"></polygon><polygon id="Shape" fill="#4F4D52" fill-rule="nonzero" opacity="0.2" points="20.8325186 56.6124645 26.8325186 62.6124645 20.8325186 62.6124645"></polygon><polygon id="Shape" fill="#EF6F59" fill-rule="nonzero" points="21.8325186 66.6124645 17.8325186 64.6124645 14.8325186 66.6124645 14.8325186 56.6124645 21.8325186 56.6124645"></polygon><polygon id="Shape" fill="#F7CB64" fill-rule="nonzero" points="46.8325186 55.6124645 0.832518557 55.6124645 0.832518557 0.612464493 46.8325186 0.612464493"></polygon><path d="M23.8325186,51.6124645 C23.8325186,52.7164645 22.9384486,53.6124645 21.8325186,53.6124645 L0.832518557,53.6124645 L0.832518557,55.6124645 L46.8325186,55.6124645 L46.8325186,3.61246449 L25.8325186,3.61246449 C24.7265885,3.61246449 23.8325186,4.50746449 23.8325186,5.61246449 L23.8325186,51.6124645 Z" id="Fill-361" fill-opacity="0.126868207" fill="#000000"></path></g><g id="101"><use fill="black" fill-opacity="1" filter="url(#filter-3)" xlink:href="#path-2"></use><use fill="#4C3B12" fill-rule="evenodd" xlink:href="#path-2"></use></g><g id="powerbi_icon" filter="url(#filter-4)" transform="translate(7.000000, 10.000000)" fill="#4C3B12" fill-rule="nonzero"><path d="M29.8945,21.5274306 L29.2109583,21.5274306 L29.2109583,20.1871528 L29.8945,20.1871528 C31.3464994,20.1854309 32.5231395,19.0318621 32.5248958,17.6083333 L32.5248958,3.91909722 C32.5233346,2.49543282 31.3466375,1.34165283 29.8945,1.33993056 L3.997125,1.33993056 C2.54498753,1.34165283 1.36829038,2.49543282 1.36672917,3.91909722 L1.36672917,17.609375 C1.3684855,19.0329038 2.54512562,20.1864725 3.997125,20.1881944 L4.68066667,20.1881944 L4.68066667,21.5284722 L3.997125,21.5284722 C1.79056834,21.5257935 0.00253682677,19.7726661 1.13686838e-13,17.609375 L1.13686838e-13,3.91909722 C0.00253721869,1.75567077 1.79078419,0.0024874693 3.99747917,0 L29.8945,0 C32.101195,0.0024874693 33.8894419,1.75567077 33.8919792,3.91909722 L33.8919792,17.609375 C33.8894419,19.7728014 32.101195,21.5259848 29.8945,21.5284722" id="Shape"></path><path d="M8.19541667,17.040625 C8.68733248,17.040625 9.1591007,17.2322062 9.5069377,17.5732228 C9.85477471,17.9142395 10.0501875,18.3767574 10.0501875,18.8590278 L10.0501875,23.0524306 C10.0501875,24.0568984 9.21961975,24.8711806 8.1950625,24.8711806 C7.70302397,24.8713648 7.23107376,24.6798649 6.88308354,24.3388283 C6.53509332,23.9977917 6.3395833,23.5351685 6.33958333,23.0527778 L6.33958333,18.859375 C6.33958333,17.8549071 7.17015109,17.040625 8.19470833,17.040625 L8.19541667,17.040625 Z" id="Shape"></path><path d="M14.0296042,24.8715278 C13.0049896,24.8715278 12.1743206,24.0573018 12.174125,23.0527778 L12.174125,12.2888889 C12.174125,11.2843251 13.004772,10.4699653 14.0294271,10.4699653 C15.0540821,10.4699653 15.8847292,11.2843251 15.8847292,12.2888889 L15.8847292,23.0527778 C15.8847292,24.0573018 15.0542187,24.8716833 14.0296042,24.871875" id="Shape"></path><path d="M25.6972708,24.8184028 C24.6726563,24.8184028 23.8419872,24.0041768 23.8417917,22.9996528 L23.8417917,7.75659722 C23.8417917,6.75203345 24.6724387,5.93767361 25.6970938,5.93767361 C26.7217488,5.93767361 27.5523958,6.75203345 27.5523958,7.75659722 L27.5523958,22.9996528 C27.5523959,24.0041768 26.7218854,24.8185583 25.6972708,24.81875" id="Shape"></path><path d="M19.8634375,24.8715278 C18.8388229,24.8715278 18.0081539,24.0573018 18.0079583,23.0527778 L18.0079583,15.0565972 C18.0079583,14.0520335 18.8386054,13.2376736 19.8632604,13.2376736 C20.8879155,13.2376736 21.7185625,14.0520335 21.7185625,15.0565972 L21.7185625,23.0527778 C21.7185625,24.0573018 20.888052,24.8716833 19.8634375,24.871875" id="Shape"></path></g></g><g id="Power-BI-Border" stroke="#F2C811" stroke-width="4"><rect id="Azure-Border" x="2" y="2" width="96" height="96" rx="48"></rect></g></g></g></g></svg>

<svg xmlns="http://www.w3.org/2000/svg" xmlns:xlink="http://www.w3.org/1999/xlink" viewBox="0 0 100 100"><defs><filter x="-2.1%" y="-1.5%" width="104.2%" height="105.9%" filterUnits="objectBoundingBox" id="a"><feOffset dy="2" in="SourceAlpha" result="shadowOffsetOuter1"/><feColorMatrix values="0 0 0 0 0 0 0 0 0 0 0 0 0 0 0 0 0 0 0.0963541667 0" in="shadowOffsetOuter1" result="shadowMatrixOuter1"/><feMerge><feMergeNode in="shadowMatrixOuter1"/><feMergeNode in="SourceGraphic"/></feMerge></filter><path d="M14.27 40.068h3.997v9.265h-2.144v-7.545H14.27v-1.72zm9.582 9.423c-2.276 0-3.97-1.733-3.97-4.79 0-3.058 1.694-4.792 3.97-4.792 2.29 0 3.97 1.734 3.97 4.791 0 3.058-1.68 4.791-3.97 4.791zm0-1.813c1.072 0 1.813-.873 1.813-2.978 0-2.104-.74-2.978-1.813-2.978-1.059 0-1.8.874-1.8 2.978 0 2.105.741 2.978 1.8 2.978zm4.513-7.61h3.997v9.265h-2.144v-7.545h-1.853v-1.72z" id="c"/><filter x="-.7%" y="-1.3%" width="101.4%" height="105.2%" filterUnits="objectBoundingBox" id="b"><feOffset dy=".25" in="SourceAlpha" result="shadowOffsetOuter1"/><feColorMatrix values="0 0 0 0 1 0 0 0 0 1 0 0 0 0 1 0 0 0 0.249094203 0" in="shadowOffsetOuter1"/></filter><filter x="-.4%" y="-.5%" width="100.7%" height="102%" filterUnits="objectBoundingBox" id="d"><feOffset dy=".25" in="SourceAlpha" result="shadowOffsetOuter1"/><feColorMatrix values="0 0 0 0 1 0 0 0 0 1 0 0 0 0 1 0 0 0 0.249094203 0" in="shadowOffsetOuter1" result="shadowMatrixOuter1"/><feMerge><feMergeNode in="shadowMatrixOuter1"/><feMergeNode in="SourceGraphic"/></feMerge></filter></defs><g fill="none" fill-rule="evenodd"><rect fill="#7D7D7D" x="2" y="2" width="96" height="96" rx="48"/><g filter="url(#a)" transform="translate(26 16)"><path d="M1 56v6c.007 1.194.838 2.002 2 2h44v-8H1z" fill="#BE9556" fill-rule="nonzero"/><path d="M3 57v4c.034 1.105.92 2.002 1.956 2H47v-6H3z" fill="#FFF" fill-rule="nonzero"/><path fill="#4F4D52" fill-rule="nonzero" opacity=".2" d="M3 57v1h44v-1z"/><path fill="#4F4D52" fill-rule="nonzero" opacity=".2" d="M21 57l6 6h-6z"/><path fill="#EF6F59" fill-rule="nonzero" d="M22 67l-4-2-3 2V57h7z"/><path fill="#F7CB64" fill-rule="nonzero" d="M47 56H1V1h46z"/><path d="M24 52a2 2 0 0 1-2 2H1v2h46V4H26c-1.106 0-2 .895-2 2v46z" fill-opacity=".127" fill="#000"/><g><use fill="#000" filter="url(#b)" xlink:href="#c"/><use fill="#4C3B12" xlink:href="#c"/></g><g filter="url(#d)" transform="translate(7 10)" fill="#4C3B12" fill-rule="nonzero"><path d="M29.895 21.527h-.684v-1.34h.684c1.451-.002 2.628-1.155 2.63-2.579V3.92c-.002-1.424-1.178-2.577-2.63-2.58H3.997c-1.452.003-2.629 1.156-2.63 2.58v13.69c.001 1.424 1.178 2.577 2.63 2.58h.684v1.34h-.684C1.791 21.525.003 19.772 0 17.608V3.92C.003 1.756 1.79.002 3.997 0h25.898c2.206.002 3.994 1.756 3.997 3.92v13.69c-.003 2.163-1.79 3.916-3.998 3.918"/><path d="M8.195 17.04c.492 0 .964.192 1.312.533a1.8 1.8 0 0 1 .543 1.286v4.193c0 1.005-.83 1.82-1.855 1.82-.492 0-.964-.192-1.312-.533a1.8 1.8 0 0 1-.543-1.286v-4.194c0-1.004.83-1.818 1.855-1.818zM14.03 24.872c-1.025 0-1.856-.815-1.856-1.82V12.29c0-1.005.83-1.819 1.855-1.819s1.856.814 1.856 1.819v10.764c0 1.004-.83 1.819-1.855 1.819M25.697 24.818c-1.024 0-1.855-.814-1.855-1.818V7.757c0-1.005.83-1.82 1.855-1.82s1.855.815 1.855 1.82V23c0 1.004-.83 1.819-1.855 1.819M19.863 24.872c-1.024 0-1.855-.815-1.855-1.82v-7.995c0-1.005.83-1.82 1.855-1.82s1.856.815 1.856 1.82v7.996c0 1.004-.83 1.819-1.856 1.819"/></g></g><rect x="2" y="2" width="96" height="96" rx="48" stroke="#F2C811" stroke-width="4"/></g></svg>
